X:1
T:Title
%%score { ( 1 3 ) | ( 2 4 ) }
L:1/8
Q:1/4=100
M:6/8
K:F
V:1 treble nm="Grand Piano"
V:3 treble 
V:2 bass 
V:4 bass 
V:1
 AAA G2 F | F3 E3 | [EB][EB][EB] [EA]2 [EG] | A6 | ccc B2 A | [DG]3 D3 | EEF [EG]2 [EA] | F6 | %8
w: D.~B.~Towner * * * *||||||||
 c3 d2 c | A c2- c3 | A2 G z GA | [EG]3- [EG]2 [EG] | A3 AB[_EFc] | .[DFc]3 [CFA]2 [DG] | %14
w: ||||||
 [A,CF][G,CE][A,CF] [CFA]2 G | F6 | c3 d>dc | A c2- c3 | d^cd e2 [Af] | [Be]6 | %20
w: ||||||
 [Af]3 [CAc]>[CGB][CFA] | [DFG] [Fd]2- [Fd]3 | [Fd]>[Fc][Fc] [FA]2 G | F6 |] %24
w: ||||
V:2
 [F,CF][F,CF][F,CF] [F,B,D]2 [F,A,C] | [C,A,C]3 [C,G,C]3 | [C,G,][C,G,][C,G,] [C,C]2 [C,C] | %3
 [F,CF]6 | [F,A,F][F,A,F][F,A,F] [F,DF]2 [F,CF] | [B,,B,]3 [B,,B,]3 | %6
 [C,G,C][C,G,C][C,A,C] [C,B,]2 [C,C] | [F,A,]6 | [F,A,F]3 [F,B,F]2 [F,A,F] | %9
 [F,F] [F,A,F]2- [F,A,F]3 | [F,CF]2 [F,B,F] A,B,[F,CF] | [C,C]3- [C,C]2 [C,C] | z3 .C3 | %13
 z2[K:treble] B[K:bass] z2 B, | C,C,C, C,2 [C,B,C] | [F,A,C]6 | [F,A,F]3 [F,B,F]>[F,B,F][F,A,F] | %17
 [F,F] [F,A,F]2- [F,A,F]3 | [B,F][B,G][B,G] [G,CG]2[K:bass] [F,C] | [C,C]6 | [F,C]3 F,>F,F, | %21
 B,, [B,,B,]2- [B,,B,]3 | [C,A,]>[C,A,][C,A,] [C,C]2 [C,B,C] | [F,A,C]6 |] %24
V:3
 x6 | x6 | x6 | x6 | x6 | x6 | x6 | x6 | x6 | x6 | z3 .F3 | x6 | x6 | x6 | x6 | x6 | x6 | x6 | x6 | %19
 x6 | x6 | x6 | x6 | x6 |] %24
V:4
 x6 | x6 | x6 | x6 | x6 | x6 | x6 | x6 | x6 | x6 | z3 .F,3 | x6 | [F,CF]3 [F,F]-[F,DF]A, | %13
 B,3[K:treble][K:bass] B,,3 | x6 | x6 | x6 | x6 | x5[K:bass] x | x6 | x6 | x6 | x6 | x6 |] %24

